X:1
T:Bethena.
T:“BETHENA”
T:By  SCOTT  JOPLIN. Composer of “Maple Leaf Rag”
T:A  CONCERT  WALTZ.
T:Public Domain
T:Public Domain
T:Public Domain
T:Public Domain
T:Public Domain
T:Public Domain
C:Scott Joplin
Z:Public Domain
%%score { ( 1 3 5 ) | ( 2 4 ) }
L:1/8
Q:1/4=100
M:3/4
K:G
V:1 treble nm="Piano" snm="Pno."
V:3 treble 
V:5 treble 
V:2 bass 
V:4 bass 
V:1
!mp!"^Valse Tempo." a g2 b a2 | A G2 B A2 | z6 | z6 |[Q:1/4=96] [G,CE]6 |[Q:1/4=93] [G,C_E]6 | %6
[Q:1/4=90] [F,CD]6 |[Q:1/4=86] [CFA]6 ||!mp!"^Valse cantabile."[Q:1/4=100]"_a tempo." A G2 B A2 | %9
 A G2 B A2 | A c2 B A2 | G6 | e a2 e g2 | B e2 B d2 | G B2 G B2 | A6 | A G2 B A2 | A G2 B A2 | %18
 A c2 B A2 | G6 | e a2 e g2 | B e2 B (dD) | (^C [GB]2) (=C [FA]2) | (G4 B2) ||!f! (B2"^ten." A4) | %25
"^ten." [^CG]6 | (F2"^ten." =F4) |"^ten." =f6 |:[K:Bb]!f! [DBd] [Gg]2 [Ff] [Gg][Aa] | [Bb]6 | %30
 [dd'] [cc']2 [ff'] [=e=e'][_e_e'] | [dd']6 | [Bb] [eg]2 [Bb] [B^cg]2 | %33
 [Bdg] [Bdf]2 [Bdg] [F=Bd]2 | d B2 d c2 | c6 | [DBd] [Gg]2 [Ff] [Gg][Aa] | [Bb]6 | %38
 [dd'] [cc']2 [ff'] [=e=e'][_e_e'] | [dd']6 | [Bb] [eg]2 [Bb] [B^cg]2 | %41
 [Bdg] [Bdf]2 [Bdg] [F=Bd]2 | d B2 d c2 |1 [DFB]2 FBc^c :|2 [DFB]2 A_A G2 || _G F2 =E _E2 | %46
 D2 d2 d2 | d2 ^c2 =c2 |!<(! [D=F^G=B]2 [DFGB]2 [DFGB]2!<)! |!f! [^C=G_B]4 [=CGA]2 | [C^FA]6- | %51
"^ten."!>(! [CFA]6!>)! ||[K:G]!mp!"^Cantabile." A G2 B A2 | A G2 B A2 | A c2 B A2 | G6 | %56
 e a2 e g2 | B e2 B d2 | G B2 G B2 | A6 | A G2 B A2 | A G2 B A2 | A c2 B A2 | G6 | e a2 e g2 | %65
 B e2 B (dD) | (^C [GB]2) (=C [FA]2) | [B,DG]6 ||!f! G6 | ^G6 | ^G6 | [E^G]6 | [^E^G]6 | [=F_A]6 | %74
[Q:1/4=94] [_D=F_A]2[Q:1/4=90] [=DFA]2[Q:1/4=86] [DF=A]2 |"^ten."[Q:1/4=82] _B6[Q:1/4=70] |: %76
[K:F]!f![Q:1/4=100]"_a tempo.""^Cantabile." ([CFA]2 [CEB]2 [DF=B]2) | (c [fa]2) (c [fa]2) | %78
 (B [eg]2) (B [Beg]2) | [Adf]4 [Aa]2 | [Ac^da] [Acda]2 [Acdf] [Acdf]2 | %81
 [Acea] [Acea]2 [Ace] [Ace]2 |"_dim." [^Ge] [Ge]2[Q:1/4=98] [Ge] [Ge]2 | %83
[Q:1/4=94] (A2[Q:1/4=92] c2[Q:1/4=90] B2) |!f![Q:1/4=100]"_a tempo." ([CFA]2 [CEB]2 [DF=B]2) | %85
 (c [fa]2) (c [fa]2) | (B [eg]2) (B [Beg]2) |1 [Adf]4 (a=b) | c' a2 c' a2 | c' g2 c' g2 | %90
[Q:1/4=98] g g2[Q:1/4=96] g g2 |[Q:1/4=94] ([cec']_b[Q:1/4=92]ge[Q:1/4=90]cB) :|2 %92
[Q:1/4=100] [Adf]4 (de) || [Ff] [Bd]2 [Ff] [F^Gd]2 | %94
 [FAd][Q:1/4=98] [FAc]2 [FAd][Q:1/4=96] [C^FA]2 |[Q:1/4=94] A F2[Q:1/4=92] A G2 | %96
 F2[Q:1/4=87] (Ff[Q:1/4=75] f2) ||[Q:1/4=100]"_a tempo." (fefe_ed) | (=e^ded=d_d) | (_eded_dc) | %100
[Q:1/4=94] ^c4 !fermata!z2 |:[K:Bmin]!p!"^Cantabile."[Q:1/4=100] d B2 f d2 | (bfd)B- B2 | %103
 ^A f2 g f2 | B f2 g f2 | d B2 f d2 | (bfd)B- Bd |!<(! [Bd] [Bd]2 [Bd][Q:1/4=98] [Bce][Bc^e]!<)! | %108
!f![Q:1/4=96] [^Acf]2[Q:1/4=92] !^!C2[Q:1/4=88]!>(![I:staff +1]{/^E,} !^!F,2!>)! | %109
!p![Q:1/4=100]"_a tempo."[I:staff -1] d B2 f d2 | (bfd)B- B2 | ^A f2 g f2 | B f2 g fb | b g2 a gf | %114
 f d2 e dc | c ^A2 g f2 |1 B2 !^!G2 !^!F2 :|2 B2 [D^E^Gd]2 [DFA=c]2 |:!mf! B d2 B d2 | %119
 A3!<(! (Adf)!<)! |!f! a g2 g fe | [Adf]d!>(! A2 [DF=c]2!>)! |!mf! B d2 B d2 |!<(! A4 d2!<)! | %124
!f! (c^BcBcf) | B2!>(! [D^E^Gd]2 [DFA=c]2!>)! |!mf! B d2 B d2 | A3!<(! (Adf)!<)! |!f! a g2 g fe | %129
 f3 (dfa) | b d'2 d' e'2 | (d'a) f3 f |1 a g2 g fe | [FAd]4 [DF=c]2 :|2 %134
!f![Q:1/4=95] a g2[Q:1/4=91] e c2 ||!f!"^ten."[Q:1/4=100]"_a tempo." [^D^F=c]6 | %136
!f!"^ten." [=D=FB]6 |!f!"^ten."!<(! [^CE_B]6!<)! |!ff! [^CG_B]2!ff!"^ten." [=CGA]4 | %139
!ff!"^ten." [=CFA]6 ||[K:G]"^Finale."!mf! A G2 B A2 | A G2 B A2 | A c2 B A2 | G6 | e a2 e g2 | %145
 B e2 B d2 | G B2 G B2 | A6 | A G2 B A2 | A G2 B A2 | A c2 B A2 | G6 | e a2 e g2 | %153
[Q:1/4=95] B e2[Q:1/4=89] B (dD) | (^C[Q:1/4=85] [GB]2)[Q:1/4=78] (=C !fermata![FA]2) | %155
[Q:1/4=85]"^Andante."!p! (A G2 B A2) | G2 (g2 a2) | (a g2 b a2) | g2 g'2 g'2 | %159
!f![Q:1/4=100]"_Tempo primo" a g2 b a2 |!f! A G2 B A2 |!f! A, G,2 B, A,2 | %162
!f! G,2 !fermata![G,_B,_EG]4 |!f![Q:1/4=72] [G,=B,DG]6!fine! |] %164
V:2
"^Tema." z6 | z6 | A, G,2 B, A,2 | A,, G,,2 B,, A,,2 |"^rit." A,, G,,2 B,, A,,2 | %5
"^poco a poco" A,, C,2 B,, A,,2 | D,6 | [D,,D,]6 ||!ped! G,,2 [D,G,]2 [D,G,]2!ped-up! | %9
!ped! [E,,E,]2 [E,G,A,]2 [E,G,A,]2!ped-up! |!ped! [D,,D,]4!ped-up! [^D,,^D,]2 | %11
!ped! [E,,E,]2 [E,G,]2 [E,G,]2!ped-up! |!ped! [C,,C,]2 [E,G,C]2 [E,G,C]2!ped-up! | %13
!ped! [D,,D,]2 [D,G,B,]2 [D,G,B,]2!ped-up! |!ped! [A,,,A,,]2 [E,G,A,]2 [A,,,A,,]2!ped-up! | %15
!ped! [D,,D,]6!ped-up! |!ped! G,,2 [D,G,]2 [D,G,]2!ped-up! | %17
!ped! [E,,E,]2 [E,G,A,]2 [E,G,A,]2!ped-up! |!ped! [D,,D,]4!ped-up! [^D,,^D,]2 | %19
!ped! [E,,E,]2 [E,G,]2 [E,G,]2!ped-up! |!ped! [C,,C,]2 [E,G,C]2 [E,G,C]2!ped-up! | %21
!ped! [D,,D,]2 [D,G,B,]2 [D,G,B,]2!ped-up! |!ped! [E,,E,]2 [A,,,A,,]2!ped-up! [D,,D,]2 | %23
 [G,,G,]6 || (([^F,,^F,]4 [=F,,=F,]2)) | (([E,,E,]4 [_E,,_E,]2)) | (([D,,D,]4 [C,,C,]2)) | %27
"^ten." [=F,,,=F,,]6 |:[K:Bb] [B,,,B,,]2 [F,B,D][F,,F,] [=E,,=E,][_E,,_E,] | %29
!ped! [D,,D,]2 [F,B,D]2 [F,B,D]2!ped-up! | [F,,F,]2 [F,A,E][F,,F,] [G,,G,][A,,A,] | %31
!ped! [B,,B,]2 [F,B,D]2 [F,B,D]2!ped-up! |!ped! [E,,E,]2 [G,B,E]2!ped-up! [=E,,=E,]2 | %33
!ped! [F,,F,]2 [F,B,D]2!ped-up! [G,,G,]2 |!ped! [C,,C,]2 [G,,G,]2!ped-up! [_G,,_G,]2 | %35
!ped! [F,,F,]2 [A,C]2 [A,C]2!ped-up! | [B,,,B,,]2 [F,B,D][F,,F,] [=E,,=E,][_E,,_E,] | %37
!ped! [D,,D,]2 [F,B,D]2 [F,B,D]2!ped-up! | [F,,F,]2 [F,A,E][F,,F,] [G,,G,][A,,A,] | %39
!ped! [B,,B,]2 [F,B,D]2 [F,B,D]2!ped-up! |!ped! [E,,E,]2 [G,B,E]2!ped-up! [=E,,=E,]2 | %41
!ped! [F,,F,]2 [F,B,D]2!ped-up! [G,,G,]2 |!ped! [C,,C,]2 [G,B,C]2!ped-up! [F,,F,]2 |1 %43
 [B,,B,]2 z2 z2 :|2 [B,,B,]2 A,_A, G,2 || _G, F,2 =E, _E,2 | D,2[I:staff -1] [G_B]2 [^FA]2 | %47
 [=F_A]2 [=EG]2 [_E_G]2 |[I:staff +1] [D,,D,]2 [D,,D,]2 [D,,D,]2 | [=E,,=E,]4 [_E,,_E,]2 | %50
 [D,,D,]4 A,,2 |"^ten." D,,6 ||[K:G]!ped! G,,2 [D,G,]2 [D,G,]2!ped-up! | %53
!ped! [E,,E,]2 [E,G,A,]2 [E,G,A,]2!ped-up! |!ped! [D,,D,]4!ped-up! [^D,,^D,]2 | %55
!ped! [E,,E,]2 [E,G,]2 [E,G,]2!ped-up! |!ped! [C,,C,]2 [E,G,C]2 [E,G,C]2!ped-up! | %57
!ped! [D,,D,]2 [D,G,B,]2 [D,G,B,]2!ped-up! |!ped! [A,,,A,,]2 [E,G,A,]2 [A,,,A,,]2!ped-up! | %59
!ped! [D,,D,]6!ped-up! |!ped! G,,2 [D,G,]2 [D,G,]2!ped-up! | %61
!ped! [E,,E,]2 [E,G,A,]2 [E,G,A,]2!ped-up! |!ped! z2 [F,A,]2!ped-up! z2 | %63
!ped! [E,,E,]2 [E,G,]2 [E,G,]2!ped-up! |!ped! [C,,C,]2 [E,G,C]2 [E,G,C]2!ped-up! | %65
!ped! [D,,D,]2 [D,G,B,]2 [D,G,B,]2!ped-up! |!ped! [E,,E,]2 [A,,,A,,]2!ped-up! [D,,D,]2 | %67
 [G,,G,]2 D,2 G,,2 ||"^ten."!ped! [=F,B,D]6!ped-up! |"^ten."!ped! [E,B,D]6!ped-up! | %70
"^ten."!ped! [^D,B,^D]6!ped-up! |"^ten."!ped! [=D,B,]6!ped-up! |"^ten."!ped! [^C,B,]6!ped-up! | %73
"^ten."!ped! [=C,=C]6!ped-up! |"^rit.   -        -        -        -       -" _C,2 _B,,2 A,,D, | %75
 (G,,2 C,4) |:[K:F] [F,,F,]2 [G,,G,]2 [^G,,^G,]2 |!ped! [A,,A,]2 [A,CF]2 [A,CF]2!ped-up! | %78
!ped! [C,,C,]4!ped-up! [^C,,^C,]2 |!ped! [D,,D,]6!ped-up! | %80
!ped! [F,,F,]2 [A,C^D]2 [A,CD]2!ped-up! |!ped! [E,,E,]2 [A,CE]2 [A,CE]2!ped-up! | %82
!ped! [E,,E,]2 [^G,DE]2 [G,DE]2!ped-up! | [A,CE]4 [=G,CE]2 | [F,,F,]2 [G,,G,]2 [^G,,^G,]2 | %85
!ped! [A,,A,]2 [A,CF]2 [A,CF]2!ped-up! |!ped! [C,,C,]4!ped-up! [^C,,^C,]2 |1 %87
!ped! [D,,D,]6!ped-up! |!ped! [^F,,^F,]6!ped-up! |!ped! [G,,G,]6!ped-up! | %90
"^rit.  -      -      -      -     -      -      -      -"!ped! [G,,G,]2 [G,=B,F]2 [G,B,F]2!ped-up! | %91
 [C,,C,]2 [G,_B,CE]4 :|2!ped! [D,,D,]6!ped-up! || %93
!ped! [B,,,B,,]4!ped-up!"^rit.       poco   a   poco" [=B,,,=B,,]2 | %94
!ped! [C,,C,]4!ped-up! [D,,D,]2 |!ped! [G,,,G,,]4!ped-up! [C,,C,]2 | [F,,F,]6 || %97
"^ten." [^G,=B,D]6 |"^ten." [=G,_B,_D]6 |"^ten." [^F,A,C]6 | ^A,4 !fermata!z2 |: %101
[K:Bmin]!ped! [B,,,B,,]2 [F,B,D]2 [F,B,D]2!ped-up! |!ped! [B,,,B,,]2 [F,B,D]2 [F,B,D]2!ped-up! | %103
!ped! [F,,,F,,]2 [F,^A,E]2 [F,A,E]2!ped-up! |!ped! [B,,,B,,]2 [F,B,D]2 [F,B,D]2!ped-up! | %105
!ped! [B,,,B,,]2 [F,B,D]2 [F,B,D]2!ped-up! |!ped! [B,,,B,,]2 [F,B,D]2 [F,B,D]2!ped-up! | %107
"^rit." [G,,G,]2 [G,,G,]2 [G,,G,]2 | [F,,F,]2 !^!C,2{/^E,,} !^!F,,2 | %109
!ped! [B,,,B,,]2 [F,B,D]2 [F,B,D]2!ped-up! |!ped! [B,,,B,,]2 [F,B,D]2 [F,B,D]2!ped-up! | %111
!ped! [F,,,F,,]2 [F,^A,E]2 [F,A,E]2!ped-up! |!ped! [B,,,B,,]2 [F,B,D]2 [F,B,D]2!ped-up! | %113
!ped! [E,,E,]2 [G,B,E]2 [G,B,E]2!ped-up! |!ped! [B,,,B,,]2 [F,B,D]2 [F,B,D]2!ped-up! | %115
!ped! [F,,,F,,]2 [F,^A,E]2 [F,A,E]2!ped-up! |1 [B,D]2 !^![G,,G,]2 !^![F,,F,]2 :|2 %117
 [B,D]2 [B,,B,]2 [A,,A,]2 |:!ped! [G,,G,]2 [E,,E,]2!ped-up! [^E,,^E,]2 | [F,,F,]2 [F,A,]2 [F,A,]2 | %120
!ped! [A,,,A,,]2 [G,A,C]2 [G,A,C]2!ped-up! |!ped! [D,,D,]2 [F,A,D]2!ped-up! [A,,A,]2 | %122
!ped! [G,,G,]2 [E,,E,]2!ped-up! [^E,,^E,]2 |!ped! [F,,F,]6!ped-up! | [G,^A,E]4 [F,A,E]2 | %125
 [B,D]2 [B,,B,]2 [A,,A,]2 | [G,,G,]2 [E,,E,]2 [^E,,^E,]2 | [F,,F,]2 [F,A,]2 [F,A,]2 | %128
!ped! [A,,,A,,]2 [G,A,C]2 [G,A,C]2!ped-up! |!ped! [D,,D,]2 [F,A,D]2 [A,,A,]2!ped-up! | %130
 [G,,G,]2 [B,,B,]2 [_B,,_B,]2 |!ped! [A,,A,]2 [F,A,D]2 [F,A,D]2!ped-up! |1 %132
!ped! [A,,,A,,]2 [G,A,C]2 [G,A,C]2!ped-up! | [D,,D,]2 [F,A,D]2 [A,,A,]2 :|2 %134
"^rit." (A,,2 A,2) _B,2 || (A,^G,A,G,=G,F,) | (^G,^^F,G,F,^F,=F,) | (=G,^F,G,F,=F,E,) | %138
 [E,,E,]2"^ten." [_E,,_E,]4 |"^ten." [D,,D,]6 ||[K:G]!ped! G,,2 [D,G,]2 [D,G,]2!ped-up! | %141
!ped! [E,,E,]2 [E,G,A,]2 [E,G,A,]2!ped-up! |!ped! [D,,D,]4!ped-up! [^D,,^D,]2 | %143
!ped! [E,,E,]2 [E,G,]2 [E,G,]2!ped-up! |!ped! [C,,C,]2 [E,G,C]2 [E,G,C]2!ped-up! | %145
!ped! [D,,D,]2 [D,G,B,]2 [D,G,B,]2!ped-up! |!ped! [A,,,A,,]2 [E,G,A,]2 [A,,,A,,]2!ped-up! | %147
!ped! [D,,D,]6!ped-up! |!ped! G,,2 [D,G,]2 [D,G,]2!ped-up! | %149
!ped! [E,,E,]2 [E,G,A,]2 [E,G,A,]2!ped-up! |!ped! z2 [F,A,]2!ped-up! z2 | %151
!ped! [E,,E,]2 [E,G,]2 [E,G,]2!ped-up! |!ped! [C,,C,]2 [E,G,C]2 [E,G,C]2!ped-up! | %153
"^rit. poco  a  poco"!ped! [D,,D,]2 [D,G,B,]2 [D,G,B,]2!ped-up! | %154
!ped! [E,,E,]2 [A,,,A,,]2!ped-up! !fermata![D,,D,]2 | (D,2 E,2 _E,2 | D,2) z2 z2 | (D2 E2 _E2 | %158
 D2) z2 z2 |[I:staff -1] [GBd]6 |[I:staff +1] [G,B,D]6 | [G,,B,,D,]6 | %162
 [G,,B,,D,]2 !fermata![_E,,,_E,,]4 | [G,,,G,,]6 |] %164
V:3
 x6 | x6 | x6 | x6 | x6 | x6 | x6 | x6 || [B,D]6 | [^CG]6 | [=CF]4 [CF]2 | [B,E]6 | c4 c2 | %13
 G4 [GB]2 | ^C4 [CG]2 | [=CF]6 | [B,D]6 | [^CG]6 | [=CF]4 [CF]2 | [B,E]6 | c4 c2 | G4 z2 | %22
 ^C3 =C C2 | [B,D]6 || [B,^D]6 | (_B,4 A,2) | (D4 _E2) | !arpeggio![_EAc]6 |:[K:Bb] x6 | %29
 z2 [df]2 [df]2 | x6 | z2 [fb]2 [fb]2 | x6 | x6 | [=E_B]4 [_EB]2 | [EA]6 | x6 | z2 [df]2 [df]2 | %38
 x6 | z2 [fb]2 [fb]2 | x6 | x6 | [=E_B]4 [_EA]2 |1 x6 :|2 x6 || x6 | x6 | x6 | x6 | x6 | x6 | x6 || %52
[K:G] [B,D]6 | [^CG]6 | [=CF]4 [CF]2 | [B,E]6 | c4 c2 | G4 [GB]2 | ^C4 [CG]2 | [=CF]6 | [B,D]6 | %61
 [^CG]6 | [=CF]4 [CF]2 | [B,E]6 | c4 c2 | G4 z2 | ^C3 =C C2 | x6 || z2 (gd'c'b) | z2 (eba^g) | %70
 z2 (^d^g^ab) | z2 (eba^g) | z2 (^c^g^f^e) | z2 (=c=fg_a) | x6 | (([D=F]2 [CE]4)) |:[K:F] x6 | x6 | %78
 x6 | x6 | x6 | x6 | x6 | x6 | x6 | x6 | x6 |1 x6 | (^d6 | e6) | [=Bf]4 [Bf]2 | x6 :|2 x6 || x6 | %94
 x6 | [=B,=F]4 [_B,E]2 | x6 || x6 | x6 | x6 | x6 |:[K:Bmin] x6 | x6 | x6 | x6 | x6 | x6 | x6 | x6 | %109
 x6 | x6 | x6 | x6 | x6 | x6 | x6 |1 x6 :|2 x6 |: [DGB]4 [D^G]2 | D3 z z2 | [Ac]6 | x6 | %122
 [DGB]4 [D^G]2 | D6 | x6 | x6 | [DGB]4 [D^G]2 | D3 z z2 | [Ac]6 | [Ad]4 d2 | [dg]4 g2 | f4 z2 |1 %132
 [Ac]4 [Ac][Gc] | x6 :|2 [Ac]4 [EG]2 || x6 | x6 | x6 | x6 | x6 ||[K:G] [B,D]6 | [^CG]6 | %142
 [=CF]4 [CF]2 | [B,E]6 | c4 c2 | G4 [GB]2 | ^C4 [CG]2 | [=CF]6 | [B,D]6 | [^CG]6 | [=CF]4 [CF]2 | %151
 [B,E]6 | c4 c2 | G4 z2 | ^C3 =C !fermata!C2 | (B,2 (C4) | B,2) z2 z2 | (B2 (c4) | B2) z2 z2 | x6 | %160
 x6 | x6 | x6 | x6 |] %164
V:4
 x6 | x6 | x6 | x6 | x6 | x6 | x6 | x6 || x6 | x6 | z2 [F,A,]2 z2 | x6 | x6 | x6 | x6 | %15
 z2 [D,F,A,]2 [D,F,A,]2 | x6 | x6 | z2 [F,A,]2 z2 | x6 | x6 | x6 | x6 | x6 || x6 | x6 | x6 | x6 |: %28
[K:Bb] x6 | x6 | x6 | x6 | x6 | x6 | x6 | x6 | x6 | x6 | x6 | x6 | x6 | x6 | x6 |1 x6 :|2 x6 || %45
 x6 | x6 | x6 | x6 | x6 | x6 | x6 ||[K:G] x6 | x6 | z2 [F,A,]2 z2 | x6 | x6 | x6 | x6 | %59
 z2 [D,F,A,]2 [D,F,A,]2 | x6 | x6 | [D,,D,]4 [^D,,^D,]2 | x6 | x6 | x6 | x6 | x6 || x6 | x6 | x6 | %71
 x6 | x6 | x6 | x6 | x6 |:[K:F] x6 | x6 | z2 [B,CE]2 z2 | z2 [A,DF]2 [A,DF]2 | x6 | x6 | x6 | x6 | %84
 x6 | x6 | z2 [B,CE]2 z2 |1 z2 [A,DF]2 z2 | z2 [A,C^D]2 [A,CD]2 | z2 [G,CE]2 [G,CE]2 | x6 | x6 :|2 %92
 z2 [A,DF]2 z2 || z2 [F,B,D]2 z2 | z2 [F,A,C]2 z2 | z2 [D,F,G,]2 z2 | %96
[I:staff -1] (([A,C]2[I:staff +1] (([B,_D]2)) [A,C]2)) || x6 | x6 | x6 | ^F,2 ^F,,2 x2 |: %101
[K:Bmin] x6 | x6 | x6 | x6 | x6 | x6 | x6 | x6 | x6 | x6 | x6 | x6 | x6 | x6 | x6 |1 x6 :|2 x6 |: %118
 x6 | x6 | x6 | x6 | x6 | z2 [F,A,]2 [F,A,]2 | x6 | x6 | x6 | x6 | x6 | x6 | x6 | x6 |1 x6 | x6 :|2 %134
 x6 || x6 | x6 | x6 | x6 | x6 ||[K:G] x6 | x6 | z2 [F,A,]2 z2 | x6 | x6 | x6 | x6 | %147
 z2 [D,F,A,]2 [D,F,A,]2 | x6 | x6 | [D,,D,]4 [^D,,^D,]2 | x6 | x6 | x6 | x6 | G,,6 | G,,2 x2 x2 | %157
 G,6 | G,2 x2 x2 | x6 | x6 | x6 | x6 | x6 |] %164
V:5
 x6 | x6 | x6 | x6 | x6 | x6 | x6 | x6 || x6 | x6 | x6 | x6 | x6 | x6 | x6 | x6 | x6 | x6 | x6 | %19
 x6 | x6 | x6 | x6 | x6 || x6 | x6 | A,6 | x6 |:[K:Bb] x6 | x6 | x6 | x6 | x6 | x6 | x6 | x6 | x6 | %37
 x6 | x6 | x6 | x6 | x6 | x6 |1 x6 :|2 x6 || x6 | x6 | x6 | x6 | x6 | x6 | x6 ||[K:G] x6 | x6 | %54
 x6 | x6 | x6 | x6 | x6 | x6 | x6 | x6 | x6 | x6 | x6 | x6 | x6 | x6 || x6 | x6 | x6 | x6 | x6 | %73
 x6 | x6 | x6 |:[K:F] x6 | x6 | x6 | x6 | x6 | x6 | x6 | x6 | x6 | x6 | x6 |1 x6 | x6 | x6 | x6 | %91
 x6 :|2 x6 || x6 | x6 | x6 | x6 || x6 | x6 | x6 | x6 |:[K:Bmin] x6 | x6 | x6 | x6 | x6 | x6 | x6 | %108
 x6 | x6 | x6 | x6 | x6 | x6 | x6 | x6 |1 x6 :|2 x6 |: x6 | x6 | x6 | x6 | x6 | x6 | x6 | x6 | x6 | %127
 x6 | x6 | x6 | x6 | x6 |1 x6 | x6 :|2 x6 || x6 | x6 | x6 | x6 | x6 ||[K:G] x6 | x6 | x6 | x6 | %144
 x6 | x6 | x6 | x6 | x6 | x6 | x6 | x6 | x6 | x6 | x6 | x6 | x6 | x6 | x6 | x6 | x6 | x6 | x6 | %163
 x6 |] %164

